!!!OTL: SO SEI GEGRUESST VIEL TAUSENDMAL
!!!ARE: Europa, Mitteleuropa, Deutschland
!!!SCT: B0204
!!!YEM: Copyright 1995, estate of Helmut Schaffrath.
**kern
*ICvox
*Ivox
*M3/4
*k[f#]
*G:
{4d
=1
8.g
16b
4a
4g
=2
8.ee
16cc
2a}
=3
{4.dd
8b
8a
8g
=4
4b
4a
8r}
{8d
=5
8.g
16b
4a
4g
=6
8.gg
16ee
2cc#}
=7
{4.dd
8a
8a
8g
=8
4g
4f#
4r}
=9
{12d
12f#
12a
4cc
4ee
=10
12dd
12f#
12a
2cc}
=11
{8.b
16b
8cc
8dd
8ee
8ff#
=12
8.gg
16ee
4dd
8r}
{8d
=13
8.cc
16a
4g
4d
=14
8.cc
16a
4g}
==
!!!AGN: Jahreszeiten - Lied, Fruehling
!!!ONB: ESAC (Essen Associative Code) Database: BOEHME
!!!AMT: simple triple
!!!AIN: vox
!!!EED: Helmut Schaffrath
!!!EEV: 1.0
*-
